X:215
T: Kiltycreen
T: Coillte Cr\'iona
S: "Ceol Rince na hEireann" 1/179
Z: B.Black
L: 1/8
M: 4/4
R: reel
K: Edor
dc|BE E2 BAFE|D2 (3FED DF F2|BE E2 BAFB|AFDF E2 dc|
BE E2 BAFE|D2 (3FED DF F2|BE E2 BAFB|AFDF E3z||
e2 ge bege|d2 fd adfd|e2 ge Befg|afde fe e2|
e2 ge bege|d2 fd adfd|efga bf f2|afdf efdc||
